X: 26191
T: McMahon's
R: hornpipe
M: 4/4
K: Fmajor
|:FE|CF ~F2 BFAF|CFAc fefg|af ~f2 cfAc|BAGF EF (3DFD
CF ~F2 BFAF|CFAc fefg|af ~f2 cfAc|BGEG F2:|
|:fg|af ~f2 gfde|fd{e}d^c d=c (3ABc|dA {B}A2 d2 fe|dcBA GF (3DEF|
CF ~F2 BFAF|CFAc fefg|af ~f2 cfAc|BGEG F2:|

